X:1
T: The Cottage in the Grove
C:
R:Reel
Q: 232
K:Am
M:4/4
L:1/8
Ac Bc A2 EE|GA Bd ed Bd|ea ab ag ed|cA BG A2 EE|
Ac Bc A2 EE|GA Bd ed Bd|ea a^f ge dB|Ac BG A2 A2|
|:a2 ba ge de|ge dB GA Bd|g2 ga ge dB|cA BG A2 EE|
a2 ba ge de|ge dB GA Bd|((3e^fg) fa ge dB|Aa a^f ge dB:|
Ac Bc A2 EE|GA Bd ed Bd|ea ab ag ed|cA BG A2 EE|
Ac Bc A2 EE|GA Bd ed Bd|ea a^f ge dB|Ac BG A2 A2||
